X:530
T:Rakish Paddy
M:4/4
L:1/8
K:D
=c3 B c2 AB|=cBAG EGFG|Addc defe|d=cAG FGAB|
=c3 B c2 AB|=cBAG EFGE|DEFG AB=cA|1 dcAG FGAB:|2dcAG FD D2||
eg g2 ag g2|eg g2 edcd|eaag bgag|eaag edcd|
eg g2 ag g2|efge defg|afge fdec|1dcAG FD D2:|2dcAG FGAB|>|
